X:1
T:Luci belle
T:Luci belle
T:Barbara Strozzi
T:Source : Arie---Venetia---F.Magni (Gardano)---1664. Editor : André Vierendeels (22/03/15).
T:Notes : Original clefs : C1, F4 Editorial accidentals above the staff Dotted brackets indicate black notes BC, from m21 to m24 notated in C4 BC, from m75 to m79 notated in C4 BC, from m118 to m122 notated in C4 Parole del Sig.Brunacci Figures in BC are notated in original print
C:Barbara Strozzi
%%score 1 2
L:1/8
Q:1/4=90
M:6/8
K:D
V:1 treble nm="Soprano" snm="S"
V:2 bass nm="MusicXML Part"
V:1
 z A>B cAe- |: ef>^g a A2- | AB>c d D2 | A2 z z d>e | fd f2 e>d | c2 e2 d>c | B A2 e E2- | %7
w: Lu- ci bel- le, deh,|_ di- te- mi deh,|_ di- te- mi per-|che, lu- ci|bel- le deh, di- te-|mi deh, di- te-|mi per- che deh,|
 EF>^G A A2 | e6 | z6 | z6 | z ed c c/d/e | z AG F F/G/A | z dc B B/c/d | z BA ^G G/A/B | %15
w: _ di- te- mi per|che,|||sem- pre'al- te * * r'e|dis- pie- ta- te, * *|sem- pre'al- te- re * *|dis- pie- ta- te, * *|
 z ee e2 e | z ff f2 f |"^-natural" z ef ^gfg |"^-natural" a/g/fe fAA | A2 A z BB | B2 B z ee | %21
w: vi mo- stra- te|non cu- ran- do,|non cu- ran- do'A- mor|* * * e fè vi mo-|stra- te, non cu-|ran- do vi mo-|
 e2 e z AA | ABe d/c/BA | AA>B cAe- | ef>g a A2- | AB>c d D2 | A2 z z d>e | fd f2 e>d | c2 e2 d>c | %29
w: stra- te, non cu-|ran- 'A- mor * * * e|fè, lu- ci- bel- le, deh,|_ di- te- mi deh,|_ di- te- mi per-|che lu- ci|bel- le, deh, di- te-|mi deh', di- te|
 B A2 e E2- | EF>^G A A2 | e6 | z6 | z6 |[M:3/8] z3 ::[M:3/2]"^Adagio" z4 B4 F4 | ^G6 F2 E4 | %37
w: mi per- che deh',|_ di- te- mi per-|che.||||For- mo|Fal- la- ri,|
 z4 e4 B4 | c8 B4 | A4 A8 | e8 e4 | z4 ^g4 f2 e2 | e12- | e12 | f12 | f12 | c4 ^d4 e2 f2 | g4 f8 | %48
w: for- mo|Fal- la-|ri tir-|ran- no|con- tro'i *|rei|_|fie-|ro,|fie- ro'i- stro *|men- *|
 e12 | z4 B4 c4 | d12 | d4 d4 d4 | d4 c4 c4 | A4 A4 A4 | A4 ^G4 G4 | z4 B4 ^G4 | E8 E4 | z4 c4 A4 | %58
w: to,|pur al-|fin|nell' em- pio'in-|gan- * no,|nell' em- pio'in-|gan- * no,|bre- ve|mor- te,|bre- ve|
 ^D8 D4 | E12 | E12 | F12 | F12 | ^G12- | G4 A4 c4 | A2 G2 F8 | E12 | z4 e4 c4 | A8 A4 | z4 f4 d4 | %70
w: mor- te|e-|ra,|e-|ra|il|_ tor- *|men- * *|to,|bre- ve|mor- te,|bre- ve|
 ^G8 G4 | A12 | A12 | B12 | B12 | c12- | c4 d4 f4 | d2 c2 B8 | A12 | z12 | z12 | z12 | z12 | %83
w: mor- te|e-|ra,|e-|ra|il|_ tor- *|men- * *|to.|||||
[M:4/4] z2 z A d4 | d2 fTe/d/ d2 dA/A/ | =c3 d e3 d | =c2 B2 c2 B2 |[M:3/2] z2 B2 B2 c2 c2 c2 | %88
w: Io so-|lo ahi _ _ las- so per piu|cru- * * *|* da sor- te|con per- pe- tuo pe-|
 d8 d2 d2 | e2 e2 e2 f6- | f2 g6 f4- | f2 e6 d2 c2 | d3 c B2 B2 E2 E2 | F2 F2 F2 G6- | %94
w: nar,- con per-|pe- tuo pe- nar|* pro- vo,|* pro- vo la|mor- * * te, con per-|pe- tuo pe- nar,|
 G2 G2 G2 A2 A2 A2 | B8 =c4- | c2 B6 A4- | A2 G2 F2 G2 F4 | E2 G4 AG F2 B2 | BG A2 B2 B6- | %100
w: * con per- pe- tuo pe-|nar pro-|* vo, pro-|* vo la mor- *|te, pro- vo * * la|mor- * * te, *|
 B6 z2 F2 F2 | G2 G2 G2 A2 B2 B2 | c2 c2 c2 ^d2 e2 B2 | =c2 B2 ^G2 A2 B2 F2 | G6 G6 | %105
w: * con per-|pe- tuo pe- nar, con per-|pe- tuo pe- nar pro- *||* vo,|
 z2 =F6 E2 EF/G/ | E4- E^D E6!fine! ||[M:4/4] z2 z e c2 cd/e/ | A2 Ac ^d2 d/e/f | %109
w: pro- vo la _ _|mor- * te. *|Hor voi ar- bi- tre|sia- te al mio do- * *|
 f>e ^d>c B3 c/d/ | B2 z E/F/ ^G2 GA | B2 B^G/A/ B2 BA | c2 c2 z4 |[M:9/4] z6 z2 e3 e ^d2 =d3 d | %114
w: lo- * * * * * *|re, se nel re- gno d'A-|mo- re, se nel re- gno d'A-|mo- re,|piu'in- fe- li- ce'a- ma-|
[M:3/2] c2 =c3 c B2 B3 B | ^A2 z2 =A2 A2 G3 A/B/ |[M:3/4] G2 F2 G2 | E4 z2 | %118
w: tor, piu'in- fe- li- ce'a- ma-|tor vi sia, vi _ _|sia di- *|me,|
[M:3/2] z2 B3 B ^A2 =A3 A | ^G2 d3 d c2 B3 B |[M:3/4] B2 ^A2 Bc | d2 c2 d2 | %122
w: piu'in- fe- li- ce'a- ma-|tor, piu'in- fe- li- ce'a- ma-|tor vi _ _|sia di- *|
[M:3/2] B2 z2 d2 c3 dcd | B2 e3 e ^d2 =d3 d | d2 c2 B2 c2 B2 c2 | A4 z2 z2 B3 B | %126
w: me, vi sia, _ _ _|_ piu'in- fe- li- ce'a- ma-|tor, vi _ sia di- *|me, piu'in- fe-|
 ^A2 =A3 A ^G2 BG AB | c2 ec de f2 A2 B2 | c2 B2 c2 A2 A2 B2 |[M:3/4] c2 B2 c2 | %130
w: li- ce'a- ma- tor vi _ _ _|sia, vi _ _ _ sia, vi- _|sia d- * me, vi _|sia di- *|
[M:6/8] AA>B cAd!D.C.! :| %131
w: me, lu- ci bel- le, deh'|
V:2
 z2 z z A,,>B,, |: C,A,,E, F,3 | E,3 D,3 | z D,>E, F,D,A, | D, D,>E, F, ^G,2 | A, A,,>B,, C, D,2 | %6
 E,2 F, E,2 D, | C, B,,2 A, ^G,>F, | E, E,>F, ^G,E,A,- | A,B,>C D D,>C, | B,,2 A,, E, E,,2 | %11
 A,,3 z A,G, | F, F,/G,/A, z D,C, | B,, B,,/C,/D, z G,F, |"^-natural" E, ^D,2 z E,D, | %15
 C, C,/D,/E, A,,A,G, | F, ^G,/^A,/B, A,G,A, | B,E,D, C, C,/D,/E, | A,, B,,2 E,A,G, | %19
 F, F,/G,/A, D,DC | B, B,/C/D z ED | C C/D/E A,A,G, | F, F,/G,/A, D, E,2 | A,,3 z A,,>B,, | %24
 C,A,,E, F,3 | E,3 D,3 | z D,>E, F,D,A, | D, D,>E, F, ^G,2 | A, A,,>B,, C, D,2 | E,2 F, E,2 D, | %30
 C, B,,2 A,^G,F, | E, E,>F, ^G,E,A, | A, B,>C D D,>C, | B,,2 A,, E,2 E,, |[M:3/8] A,,3 :: %35
[M:3/2] E,8 ^D,4 | E,8 F,4 | ^G,12 | A,4 ^G,8 | F,12 | E,4 ^G,4 F,4 | E,12 | z4 E,4 D,4 | %43
 C,4 C,4 B,,4 | A,,4 A,,4 B,,4 | C,4 C,4 B,,4 | A,,12 | B,,12 | E,,8 E,4 | ^G,8 A,4 | B,4 B,4 A,4 | %51
 ^G,4 F,4 G,4 | A,4 A,,4 B,,4 | C,4 B,,4 C,4 | ^D,4 B,2 A,2 ^G,2 F,2 | E,12 | z4 E,2 D,2 C,2 B,,2 | %57
 A,,12 | z4 B,2 A,2 ^G,2 F,2 | E,4 E,2 D,2 C,2 B,,2 | A,,4 A,2 G,2 F,2 E,2 | ^D,4 F,2 E,2 D,2 C,2 | %62
 B,,4 B,2 A,2 ^G,2 F,2 | E,4 E,2 D,2 C,2 B,,2 | A,,12 | B,,12 | E,,4 E,2 D,2 C,2 B,,2 | A,,12 | %68
 z4 A,2 G,2 F,2 E,2 | D,12 | z4 E,2 D,2 C,2 B,,2 | A,,4 A,2 G,2 F,2 E,2 | D,4 D2 C2 B,2 A,2 | %73
 ^G,4 B,2 A,2 G,2 F,2 | E,4 E2 D2 C2 B,2 | A,4 A,2 G,2 F,2 E,2 | D,12 | E,12 | %78
 A,,4 A,2 G,2 F,2 E,2 | D,4 D,2 C,2 B,,2 A,,2 | ^G,,4 A,,4 D,4 | E,4 E,,8 | A,,12 |[M:4/4] F,8- | %84
 F,8- | F,8 | F,4 G,4 |[M:3/2] z8 E,2 E,2 | F,2 F,2 F,2 G,6 | z2 G,2 G,2 A,2 A,2 A,2 | B,6 A,6 | %91
 G,6 F,4 E,2 | F,6 G,6 | z2 A,,2 A,,2 B,,2 B,,2 B,,2 | =C,6 z2 C,2 C,2 | D,2 D,2 D,2 E,6 | %96
 D,6 =C,6 | B,,4 A,,2 B,,6 | E,6- E,4 D,2 | =C,6 B,,2 B,,2 B,,2 | C,2 C,2 C,2 ^D,6 | E,6- E,2 D,4 | %102
"^7        6" C,6 B,,2 ^G,,4 | A,,2 B,,4 C,2 ^D,4 | z2 E,2 B,,2 =C,2 =C2 G,2 | A,4 B,2 =C4 A,2 | %106
 B,4 B,,2 E,6 ||[M:4/4] A,8 | F,8- | F,6 E,2 | E,8 | E,8 | A,,4 z4 | %113
[M:9/4] z2 A,3 A, ^G,2 =G,3 G, F,2 =F,3 F, |[M:3/2] E,4 _E,2 D,6 | C,2 =C,4 B,,2 A,,4 | %116
[M:3/4] D,6 | z2 E3 E |[M:3/2] ^D2 =D3 D C4 =C2 | B,2 ^G,4 A,2 F,4 |[M:3/4] G,2 F,2 E,2 | %121
 F,4 F,,2 |[M:3/2] B,,2 B,3 B, ^A,2 =A,3 A, | ^G,2 =G,3 G, F,2 =F,3 F, | E,2 D,4 E,4 E,,2 | %125
 A,,2 A,3 A, ^G,2 =G,3 G, | F,2 ^D,4 E,2 ^G,4 | A,2 C,4 D,2 F,4 | E,6 F,2 C,2 D,2 |[M:3/4] E,6 | %130
[M:6/8] A,,6 :| %131

